ES1T1/16/aimg/pina.svg

<svg clip-rule="evenodd" fill-rule="evenodd" stroke-linecap="round" stroke-linejoin="round" stroke-miterlimit="10" viewBox="0 0 246 440" xmlns="http://www.w3.org/2000/svg" xmlns:xlink="http://www.w3.org/1999/xlink"><linearGradient id="a" gradientTransform="matrix(-37.2044 -86.633 86.633 -37.2044 272.358 153.792)" gradientUnits="userSpaceOnUse" x1="0" x2="1" y1="0" y2="0"><stop offset="0" stop-color="#76aa50"/><stop offset=".33" stop-color="#76aa50"/><stop offset="1" stop-color="#a6c046"/></linearGradient><linearGradient id="b"><stop offset="0" stop-color="#76aa50"/><stop offset="1" stop-color="#a6c046"/></linearGradient><linearGradient id="c" gradientUnits="userSpaceOnUse" x1="301.546" x2="347.4667" xlink:href="#b" y1="104.577" y2="104.577"/><linearGradient id="d" gradientTransform="matrix(-5.3149 -100.452 100.452 -5.3149 287.391 148.863)" gradientUnits="userSpaceOnUse" x1="0" x2="1" y1="0" y2="0"><stop offset="0" stop-color="#76aa50"/><stop offset=".18" stop-color="#76aa50"/><stop offset="1" stop-color="#a6c046"/></linearGradient><linearGradient id="e" gradientTransform="matrix(7.7006 -95.7075 95.7075 7.7006 274.839 224.411)" gradientUnits="userSpaceOnUse" x1="0" x2="1" xlink:href="#b" y1="0" y2="0"/><linearGradient id="f" gradientTransform="matrix(0 -101.736 101.736 0 282.202 218.791)" gradientUnits="userSpaceOnUse" x1="0" x2="1" xlink:href="#b" y1="0" y2="0"/><linearGradient id="g" gradientTransform="matrix(-16.4763 254.053 -254.053 -16.4763 289.684 203.878)" gradientUnits="userSpaceOnUse" x1="0" x2="1" y1="0" y2="0"><stop offset="0" stop-color="#e6bf48"/><stop offset="1" stop-color="#be8844"/></linearGradient><clipPath id="h"><path clip-rule="evenodd" d="m388.4 325.09c6.96 74.23-13.82 132.87-102.84 135-104.42 2.49-124-60.38-115.6-134.47 9.04-79.72 61.89-134.47 114.27-134.47 50.22 0 96.19 48.9 104.17 133.94z"/></clipPath><g stroke-width="3.38" transform="translate(-156 -31)"><g fill-rule="nonzero" stroke="#252723"><path d="m263.5 147.57c1.19-2.38-21.79-13.82-30.83-43.05s-6.91-47.3-6.91-47.3 20.73 3.72 38.27 34.02c17.54 30.29-1.6 58.46-.53 56.33z" fill="url(#a)"/><path d="m309.51 149.7c-1.19-2.38 21.79-13.82 30.83-43.05s6.91-47.3 6.91-47.3-20.73 3.72-38.27 34.02c-17.54 30.28 1.6 58.45.53 56.33z" fill="url(#c)"/><path d="m279.97 163.52c-1.59-1.06-23.39-43.03-23.39-65.37 0-36.67 26.57-65.37 26.57-65.37s33.48 38.8 29.23 70.16c-3.01 22.26-32.41 60.58-32.41 60.58z" fill="url(#d)"/><path d="m241.7 204.97s-1.93-30.73-11.69-45.18c-13.29-19.67-29.23-34.55-29.23-34.55s18.6-7.44 37.2-1.06c16.19 5.55 23.92 15.41 23.92 15.41s10.7-56.28 19.67-57.4c12.76-1.59 24.98 60.06 24.98 60.06s36.67-40.39 58.46-27.64c5.13 3-24.45 33.48-32.95 57.4-5.66 15.91-4.25 35.08-4.25 35.08s-25.51-17.54-44.11-18.07c-18.61-.52-42 15.95-42 15.95z" fill="url(#e)"/><path d="m265.62 193.81s-14.35-27.64-11.16-49.43 23.39-61.65 28.7-64.84 26.03 54.78 27.11 68.03c1.59 19.67-11.16 47.83-11.16 47.83s-20.2-2.65-33.49-1.59z" fill="url(#f)"/></g><g clip-path="url(#h)"><path d="m396.63 323.69c7.41 79.05-14.72 141.5-109.52 143.76-111.2 2.66-132.05-64.3-123.11-143.2 9.62-84.9 65.91-143.2 121.69-143.2 53.49 0 102.45 52.08 110.94 142.64z" fill="url(#g)" fill-rule="nonzero" stroke="#4b422c"/><g fill="none" stroke="#252723"><path d="m340.56 196.47s-52.62 13.29-91.42 41.46-88.76 87.16-88.76 87.16"/><path d="m362.35 218.26c4.25 0-61.39 27.07-103.64 59-47.83 36.14-97.79 91.42-97.79 91.42"/><path d="m168.89 401.62 213.66-153.6"/><path d="m180.58 431.39s64.31-30.29 117.46-66.97 96.2-79.19 96.2-79.19"/><path d="m208.22 455.84s63.78-27.11 113.74-57.93c48.49-29.92 77.6-64.84 77.6-64.84"/><path d="m289.01 177.87c-41.31 17.03-95.14 51.02-110.55 79.72"/><path d="m245.96 467.53s97.79-24.98 152.01-86.63"/><path d="m254.46 183.18s56.34 24.45 90.88 60.06 53.15 80.26 53.15 80.26"/><path d="m219.38 204.44s59 37.74 92.48 77.07 83.98 109.49 83.98 109.49"/><path d="m197.59 229.42 188.15 192.93"/><path d="m181.11 257.06c0 1.59 49.96 83.44 91.42 118.52s95.14 69.63 95.14 69.63"/><path d="m170.49 299.05s41.99 73.35 76 108.96 93.54 53.15 93.54 53.15"/><path d="m157.73 338.91s47.83 86.1 77.6 104.7 65.37 24.98 65.37 24.98"/></g></g><path d="m388.4 325.09c6.96 74.23-13.82 132.87-102.84 135-104.42 2.49-124-60.38-115.6-134.47 9.04-79.72 61.89-134.47 114.27-134.47 50.22 0 96.19 48.9 104.17 133.94z" fill="none" stroke="#252723"/></g></svg>

<?xml version="1.0" encoding="UTF-8" standalone="no"?>
<!DOCTYPE svg PUBLIC "-//W3C//DTD SVG 1.1//EN" "http://www.w3.org/Graphics/SVG/1.1/DTD/svg11.dtd">
<svg width="100%" height="100%" viewBox="0 0 246 440" version="1.1" xmlns="http://www.w3.org/2000/svg" xmlns:xlink="http://www.w3.org/1999/xlink" xml:space="preserve" xmlns:serif="http://www.serif.com/" style="fill-rule:evenodd;clip-rule:evenodd;stroke-linecap:round;stroke-linejoin:round;stroke-miterlimit:10;">
    <g transform="matrix(1,0,0,1,-156,-31)">
        <g id="Capa_1">
            <g>
                <g>
                    <path d="M263.5,147.57C264.69,145.19 241.71,133.75 232.67,104.52C223.63,75.29 225.76,57.22 225.76,57.22C225.76,57.22 246.49,60.94 264.03,91.24C281.57,121.53 262.43,149.7 263.5,147.57Z" style="fill:url(#_Linear1);fill-rule:nonzero;stroke:rgb(37,39,35);stroke-width:3.38px;"/>
                    <path d="M309.51,149.7C308.32,147.32 331.3,135.88 340.34,106.65C349.38,77.42 347.25,59.35 347.25,59.35C347.25,59.35 326.52,63.07 308.98,93.37C291.44,123.65 310.58,151.82 309.51,149.7Z" style="fill:url(#_Linear2);fill-rule:nonzero;stroke:rgb(37,39,35);stroke-width:3.38px;"/>
                    <path d="M279.97,163.52C278.38,162.46 256.58,120.49 256.58,98.15C256.58,61.48 283.15,32.78 283.15,32.78C283.15,32.78 316.63,71.58 312.38,102.94C309.37,125.2 279.97,163.52 279.97,163.52Z" style="fill:url(#_Linear3);fill-rule:nonzero;stroke:rgb(37,39,35);stroke-width:3.38px;"/>
                    <path d="M241.7,204.97C241.7,204.97 239.77,174.24 230.01,159.79C216.72,140.12 200.78,125.24 200.78,125.24C200.78,125.24 219.38,117.8 237.98,124.18C254.17,129.73 261.9,139.59 261.9,139.59C261.9,139.59 272.6,83.31 281.57,82.19C294.33,80.6 306.55,142.25 306.55,142.25C306.55,142.25 343.22,101.86 365.01,114.61C370.14,117.61 340.56,148.09 332.06,172.01C326.4,187.92 327.81,207.09 327.81,207.09C327.81,207.09 302.3,189.55 283.7,189.02C265.09,188.5 241.7,204.97 241.7,204.97Z" style="fill:url(#_Linear4);fill-rule:nonzero;stroke:rgb(37,39,35);stroke-width:3.38px;"/>
                    <path d="M265.62,193.81C265.62,193.81 251.27,166.17 254.46,144.38C257.65,122.59 277.85,82.73 283.16,79.54C288.47,76.35 309.19,134.32 310.27,147.57C311.86,167.24 299.11,195.4 299.11,195.4C299.11,195.4 278.91,192.75 265.62,193.81Z" style="fill:url(#_Linear5);fill-rule:nonzero;stroke:rgb(37,39,35);stroke-width:3.38px;"/>
                </g>
                <g>
                    <g>
                        <g>
                            <clipPath id="_clip6">
                                <path d="M388.4,325.09C395.36,399.32 374.58,457.96 285.56,460.09C181.14,462.58 161.56,399.71 169.96,325.62C179,245.9 231.85,191.15 284.23,191.15C334.45,191.15 380.42,240.05 388.4,325.09Z"/>
                            </clipPath>
                            <g clip-path="url(#_clip6)">
                                <path d="M396.63,323.69C404.04,402.74 381.91,465.19 287.11,467.45C175.91,470.11 155.06,403.15 164,324.25C173.62,239.35 229.91,181.05 285.69,181.05C339.18,181.05 388.14,233.13 396.63,323.69Z" style="fill:url(#_Linear7);fill-rule:nonzero;stroke:rgb(75,66,44);stroke-width:3.38px;"/>
                                <g>
                                    <path d="M340.56,196.47C340.56,196.47 287.94,209.76 249.14,237.93C210.34,266.1 160.38,325.09 160.38,325.09" style="fill:none;fill-rule:nonzero;stroke:rgb(37,39,35);stroke-width:3.38px;"/>
                                    <path d="M362.35,218.26C366.6,218.26 300.96,245.33 258.71,277.26C210.88,313.4 160.92,368.68 160.92,368.68" style="fill:none;fill-rule:nonzero;stroke:rgb(37,39,35);stroke-width:3.38px;"/>
                                    <path d="M168.89,401.62L382.55,248.02" style="fill:none;fill-rule:nonzero;stroke:rgb(37,39,35);stroke-width:3.38px;"/>
                                    <path d="M180.58,431.39C180.58,431.39 244.89,401.1 298.04,364.42C351.19,327.74 394.24,285.23 394.24,285.23" style="fill:none;fill-rule:nonzero;stroke:rgb(37,39,35);stroke-width:3.38px;"/>
                                    <path d="M208.22,455.84C208.22,455.84 272,428.73 321.96,397.91C370.45,367.99 399.56,333.07 399.56,333.07" style="fill:none;fill-rule:nonzero;stroke:rgb(37,39,35);stroke-width:3.38px;"/>
                                    <path d="M289.01,177.87C247.7,194.9 193.87,228.89 178.46,257.59" style="fill:none;fill-rule:nonzero;stroke:rgb(37,39,35);stroke-width:3.38px;"/>
                                    <path d="M245.96,467.53C245.96,467.53 343.75,442.55 397.97,380.9" style="fill:none;fill-rule:nonzero;stroke:rgb(37,39,35);stroke-width:3.38px;"/>
                                    <path d="M254.46,183.18C254.46,183.18 310.8,207.63 345.34,243.24C379.88,278.85 398.49,323.5 398.49,323.5" style="fill:none;fill-rule:nonzero;stroke:rgb(37,39,35);stroke-width:3.38px;"/>
                                    <path d="M219.38,204.44C219.38,204.44 278.38,242.18 311.86,281.51C345.34,320.84 395.84,391 395.84,391" style="fill:none;fill-rule:nonzero;stroke:rgb(37,39,35);stroke-width:3.38px;"/>
                                    <path d="M197.59,229.42L385.74,422.35" style="fill:none;fill-rule:nonzero;stroke:rgb(37,39,35);stroke-width:3.38px;"/>
                                    <path d="M181.11,257.06C181.11,258.65 231.07,340.5 272.53,375.58C313.99,410.66 367.67,445.21 367.67,445.21" style="fill:none;fill-rule:nonzero;stroke:rgb(37,39,35);stroke-width:3.38px;"/>
                                    <path d="M170.49,299.05C170.49,299.05 212.48,372.4 246.49,408.01C280.5,443.62 340.03,461.16 340.03,461.16" style="fill:none;fill-rule:nonzero;stroke:rgb(37,39,35);stroke-width:3.38px;"/>
                                    <path d="M157.73,338.91C157.73,338.91 205.56,425.01 235.33,443.61C265.1,462.21 300.7,468.59 300.7,468.59" style="fill:none;fill-rule:nonzero;stroke:rgb(37,39,35);stroke-width:3.38px;"/>
                                </g>
                            </g>
                        </g>
                    </g>
                </g>
                <path d="M388.4,325.09C395.36,399.32 374.58,457.96 285.56,460.09C181.14,462.58 161.56,399.71 169.96,325.62C179,245.9 231.85,191.15 284.23,191.15C334.45,191.15 380.42,240.05 388.4,325.09Z" style="fill:none;fill-rule:nonzero;stroke:rgb(37,39,35);stroke-width:3.38px;"/>
            </g>
        </g>
    </g>
    <defs>
        <linearGradient id="_Linear1" x1="0" y1="0" x2="1" y2="0" gradientUnits="userSpaceOnUse" gradientTransform="matrix(-37.2044,-86.633,86.633,-37.2044,272.358,153.792)"><stop offset="0" style="stop-color:rgb(118,170,80);stop-opacity:1"/><stop offset="0.33" style="stop-color:rgb(118,170,80);stop-opacity:1"/><stop offset="1" style="stop-color:rgb(166,192,70);stop-opacity:1"/><stop offset="1" style="stop-color:rgb(166,192,70);stop-opacity:1"/></linearGradient>
        <linearGradient id="_Linear2" x1="0" y1="0" x2="1" y2="0" gradientUnits="userSpaceOnUse" gradientTransform="matrix(45.9207,0,0,45.9207,301.546,104.577)"><stop offset="0" style="stop-color:rgb(118,170,80);stop-opacity:1"/><stop offset="1" style="stop-color:rgb(166,192,70);stop-opacity:1"/><stop offset="1" style="stop-color:rgb(166,192,70);stop-opacity:1"/></linearGradient>
        <linearGradient id="_Linear3" x1="0" y1="0" x2="1" y2="0" gradientUnits="userSpaceOnUse" gradientTransform="matrix(-5.3149,-100.452,100.452,-5.3149,287.391,148.863)"><stop offset="0" style="stop-color:rgb(118,170,80);stop-opacity:1"/><stop offset="0.18" style="stop-color:rgb(118,170,80);stop-opacity:1"/><stop offset="1" style="stop-color:rgb(166,192,70);stop-opacity:1"/><stop offset="1" style="stop-color:rgb(166,192,70);stop-opacity:1"/></linearGradient>
        <linearGradient id="_Linear4" x1="0" y1="0" x2="1" y2="0" gradientUnits="userSpaceOnUse" gradientTransform="matrix(7.7006,-95.7075,95.7075,7.7006,274.839,224.411)"><stop offset="0" style="stop-color:rgb(118,170,80);stop-opacity:1"/><stop offset="1" style="stop-color:rgb(166,192,70);stop-opacity:1"/><stop offset="1" style="stop-color:rgb(166,192,70);stop-opacity:1"/></linearGradient>
        <linearGradient id="_Linear5" x1="0" y1="0" x2="1" y2="0" gradientUnits="userSpaceOnUse" gradientTransform="matrix(6.22953e-15,-101.736,101.736,6.22953e-15,282.202,218.791)"><stop offset="0" style="stop-color:rgb(118,170,80);stop-opacity:1"/><stop offset="1" style="stop-color:rgb(166,192,70);stop-opacity:1"/><stop offset="1" style="stop-color:rgb(166,192,70);stop-opacity:1"/></linearGradient>
        <linearGradient id="_Linear7" x1="0" y1="0" x2="1" y2="0" gradientUnits="userSpaceOnUse" gradientTransform="matrix(-16.4763,254.053,-254.053,-16.4763,289.684,203.878)"><stop offset="0" style="stop-color:rgb(230,191,72);stop-opacity:1"/><stop offset="1" style="stop-color:rgb(190,136,68);stop-opacity:1"/></linearGradient>
    </defs>
</svg>
